build/img/sprite_auto.svg

<svg xmlns="http://www.w3.org/2000/svg" xmlns:xlink="http://www.w3.org/1999/xlink"><symbol id="icon-arrow-right"><path d="M0 5.5h29m0 0L23.514 1M29 5.5L23.514 10" stroke="#fff"/><path d="M29.8 5.5l-1.092.885v-1.77L29.8 5.5z" fill="#fff"/></symbol><symbol id="icon-arrow-slider-desktop" viewBox="0 0 30 11">
<path d="M30 5.5L1 5.5M1 5.5L6.48649 10M1 5.5L6.48649 1" stroke="#A87B62"/>
<path d="M0.214844 5.50001L1.302 4.6102L1.302 6.38981L0.214844 5.50001Z" fill="#A87B62"/>
</symbol><symbol id="icon-arrow-slider-tablet" viewBox="0 0 37 17">
<path d="M36.7998 8.50146L0.799804 8.50147M0.799804 8.50147L10.0701 16.0015M0.799804 8.50147L10.0701 1.00147" stroke="#A87B62"/>
<path d="M0.00377819 8.50151L1.63574 7.18506L1.63574 9.81788L0.00377819 8.50151Z" fill="#A87B62"/>
</symbol><symbol id="icon-cart"><path d="M14 5a4 4 0 11-8 0M1 1h18v16H1V1z"/></symbol><symbol id="icon-facebook"><path d="M8 12.075h2.857L12 7.875H8v-2.1c0-1.082 0-2.1 2.286-2.1H12V.147C11.627.102 10.22 0 8.735 0 5.632 0 3.429 1.74 3.429 4.935v2.94H0v4.2h3.429V21H8v-8.925z" fill="#fff"/></symbol><symbol id="icon-instagram"><path d="M10 0c2.717 0 3.056.01 4.122.063 1.065.053 1.79.228 2.428.488a4.87 4.87 0 011.772 1.21c.509.526.902 1.16 1.153 1.862.247.668.415 1.43.465 2.549.047 1.12.06 1.475.06 4.328s-.01 3.209-.06 4.328c-.05 1.118-.218 1.88-.465 2.55a5.16 5.16 0 01-1.153 1.86c-.5.534-1.105.947-1.772 1.21-.637.26-1.363.436-2.428.489-1.066.05-1.405.063-4.122.063-2.717 0-3.056-.01-4.122-.063-1.065-.053-1.79-.229-2.428-.488a4.873 4.873 0 01-1.772-1.21 5.182 5.182 0 01-1.153-1.861c-.248-.67-.415-1.432-.465-2.55C.013 13.708 0 13.353 0 10.5s.01-3.209.06-4.328c.05-1.12.217-1.88.465-2.55a5.156 5.156 0 011.153-1.86A4.88 4.88 0 013.45.552C4.088.29 4.812.114 5.878.062 6.944.013 7.283 0 10 0zm0 5.25a4.882 4.882 0 00-3.536 1.538A5.386 5.386 0 005 10.5c0 1.392.527 2.728 1.464 3.712A4.882 4.882 0 0010 15.75a4.882 4.882 0 003.536-1.538A5.386 5.386 0 0015 10.5a5.386 5.386 0 00-1.464-3.712A4.882 4.882 0 0010 5.25zm6.5-.263a1.35 1.35 0 00-.366-.928 1.22 1.22 0 00-.884-.384c-.332 0-.65.138-.884.384a1.35 1.35 0 00-.366.928c0 .349.132.682.366.929.235.246.553.384.884.384.332 0 .65-.138.884-.384a1.35 1.35 0 00.366-.929zM10 7.35a2.93 2.93 0 012.121.923c.563.59.879 1.392.879 2.227s-.316 1.637-.879 2.227A2.93 2.93 0 0110 13.65a2.93 2.93 0 01-2.121-.923A3.232 3.232 0 017 10.5c0-.835.316-1.637.879-2.227A2.93 2.93 0 0110 7.35z" fill="#fff"/></symbol><symbol id="icon-pinterest"><path d="M11.364.098a9.623 9.623 0 00-6.843 1.619c-2.02 1.39-3.493 3.5-4.147 5.94a10.986 10.986 0 00.588 7.341c1.034 2.292 2.822 4.114 5.035 5.13a8.543 8.543 0 01.163-2.408c.185-.881 1.296-5.736 1.296-5.736a4.096 4.096 0 01-.324-1.656c0-1.56.857-2.723 1.923-2.723a1.28 1.28 0 01.556.119c.176.08.332.2.46.35.127.15.222.328.278.52.056.193.072.395.047.595 0 .945-.577 2.375-.88 3.717a1.7 1.7 0 00-.01.751c.052.248.16.48.312.676.154.196.349.352.57.455.22.103.462.15.703.137 1.898 0 3.17-2.553 3.17-5.566 0-2.31-1.457-4.04-4.142-4.04a4.542 4.542 0 00-1.884.326c-.6.242-1.148.61-1.609 1.08a5.002 5.002 0 00-1.073 1.659 5.202 5.202 0 00-.364 1.968 3.211 3.211 0 00.648 2.069.505.505 0 01.174.262.528.528 0 01-.012.32 42.46 42.46 0 01-.208.822.382.382 0 01-.065.159.36.36 0 01-.126.11.34.34 0 01-.319-.002c-1.383-.582-2.035-2.18-2.035-4.007 0-2.989 2.383-6.567 7.152-6.567 3.796 0 6.32 2.916 6.32 6.034 0 4.104-2.177 7.19-5.394 7.19a2.748 2.748 0 01-1.386-.324 2.91 2.91 0 01-1.067-.984s-.578 2.432-.692 2.892a8.618 8.618 0 01-1.019 2.237 9.236 9.236 0 002.846.437 9.572 9.572 0 003.827-.797 9.967 9.967 0 003.245-2.277 10.537 10.537 0 002.165-3.409c.502-1.275.759-2.64.757-4.02-.001-2.536-.876-4.985-2.463-6.896C15.95 1.689 13.758.446 11.367.099l-.003-.001z" fill="#fff"/></symbol><symbol id="icon-search"><path d="M11.048 10.074L14 13.024l-.975.976-2.951-2.952A6.205 6.205 0 010 6.202 6.205 6.205 0 016.203 0a6.205 6.205 0 014.845 10.074zm-1.382-.512a4.808 4.808 0 001.36-3.36 4.823 4.823 0 00-4.823-4.824 4.822 4.822 0 00-4.825 4.825 4.823 4.823 0 004.825 4.824 4.808 4.808 0 003.36-1.361l.103-.104z"/></symbol><symbol id="icon-triangle-bottom"><path d="M1 1l7.5 8L16 1" stroke="#A87B62"/></symbol><symbol id="icon-twitter"><path d="M19.999 2.137a7.615 7.615 0 01-2.357.714c.858-.567 1.5-1.46 1.806-2.513a7.737 7.737 0 01-2.606 1.103C16.224.709 15.406.224 14.513.06a3.761 3.761 0 00-2.605.477c-.798.472-1.432 1.223-1.804 2.135a4.99 4.99 0 00-.254 2.91 10.782 10.782 0 01-4.685-1.378A11.96 11.96 0 011.392.837 4.904 4.904 0 00.837 3.12c0 1.575.724 2.966 1.825 3.78a3.793 3.793 0 01-1.858-.568v.057c0 1.049.328 2.065.928 2.877.6.812 1.435 1.369 2.363 1.577a3.744 3.744 0 01-1.854.078 4.56 4.56 0 001.46 2.258 3.85 3.85 0 002.373.897 7.967 7.967 0 01-2.868 1.61A7.471 7.471 0 010 15.958C1.876 17.293 4.06 18.002 6.29 18c7.547 0 11.675-6.922 11.675-12.924 0-.196-.005-.393-.013-.587A8.884 8.884 0 0020 2.138l-.001-.001z" fill="#fff"/></symbol></svg>

<svg xmlns="http://www.w3.org/2000/svg" xmlns:xlink="http://www.w3.org/1999/xlink"><symbol id="icon-arrow-right"><path d="M0 5.5h29m0 0L23.514 1M29 5.5L23.514 10" stroke="#fff"/><path d="M29.8 5.5l-1.092.885v-1.77L29.8 5.5z" fill="#fff"/></symbol><symbol id="icon-arrow-slider-desktop"><path d="M30 5.5H1m0 0L6.486 10M1 5.5L6.486 1" stroke="#A87B62"/><path d="M.215 5.5l1.087-.89v1.78L.215 5.5z" fill="#A87B62"/></symbol><symbol id="icon-arrow-slider-tablet"><path d="M36.8 8.501H.8m0 0l9.27 7.5M.8 8.502l9.27-7.5" stroke="#A87B62"/><path d="M.004 8.502l1.632-1.317v2.633L.004 8.502z" fill="#A87B62"/></symbol><symbol id="icon-cart"><path d="M14 5a4 4 0 11-8 0M1 1h18v16H1V1z"/></symbol><symbol id="icon-facebook"><path d="M8 12.075h2.857L12 7.875H8v-2.1c0-1.082 0-2.1 2.286-2.1H12V.147C11.627.102 10.22 0 8.735 0 5.632 0 3.429 1.74 3.429 4.935v2.94H0v4.2h3.429V21H8v-8.925z" fill="#fff"/></symbol><symbol id="icon-instagram"><path d="M10 0c2.717 0 3.056.01 4.122.063 1.065.053 1.79.228 2.428.488a4.87 4.87 0 011.772 1.21c.509.526.902 1.16 1.153 1.862.247.668.415 1.43.465 2.549.047 1.12.06 1.475.06 4.328s-.01 3.209-.06 4.328c-.05 1.118-.218 1.88-.465 2.55a5.16 5.16 0 01-1.153 1.86c-.5.534-1.105.947-1.772 1.21-.637.26-1.363.436-2.428.489-1.066.05-1.405.063-4.122.063-2.717 0-3.056-.01-4.122-.063-1.065-.053-1.79-.229-2.428-.488a4.873 4.873 0 01-1.772-1.21 5.182 5.182 0 01-1.153-1.861c-.248-.67-.415-1.432-.465-2.55C.013 13.708 0 13.353 0 10.5s.01-3.209.06-4.328c.05-1.12.217-1.88.465-2.55a5.156 5.156 0 011.153-1.86A4.88 4.88 0 013.45.552C4.088.29 4.812.114 5.878.062 6.944.013 7.283 0 10 0zm0 5.25a4.882 4.882 0 00-3.536 1.538A5.386 5.386 0 005 10.5c0 1.392.527 2.728 1.464 3.712A4.882 4.882 0 0010 15.75a4.882 4.882 0 003.536-1.538A5.386 5.386 0 0015 10.5a5.386 5.386 0 00-1.464-3.712A4.882 4.882 0 0010 5.25zm6.5-.263a1.35 1.35 0 00-.366-.928 1.22 1.22 0 00-.884-.384c-.332 0-.65.138-.884.384a1.35 1.35 0 00-.366.928c0 .349.132.682.366.929.235.246.553.384.884.384.332 0 .65-.138.884-.384a1.35 1.35 0 00.366-.929zM10 7.35a2.93 2.93 0 012.121.923c.563.59.879 1.392.879 2.227s-.316 1.637-.879 2.227A2.93 2.93 0 0110 13.65a2.93 2.93 0 01-2.121-.923A3.232 3.232 0 017 10.5c0-.835.316-1.637.879-2.227A2.93 2.93 0 0110 7.35z" fill="#fff"/></symbol><symbol id="icon-pinterest"><path d="M11.364.098a9.623 9.623 0 00-6.843 1.619c-2.02 1.39-3.493 3.5-4.147 5.94a10.986 10.986 0 00.588 7.341c1.034 2.292 2.822 4.114 5.035 5.13a8.543 8.543 0 01.163-2.408c.185-.881 1.296-5.736 1.296-5.736a4.096 4.096 0 01-.324-1.656c0-1.56.857-2.723 1.923-2.723a1.28 1.28 0 01.556.119c.176.08.332.2.46.35.127.15.222.328.278.52.056.193.072.395.047.595 0 .945-.577 2.375-.88 3.717a1.7 1.7 0 00-.01.751c.052.248.16.48.312.676.154.196.349.352.57.455.22.103.462.15.703.137 1.898 0 3.17-2.553 3.17-5.566 0-2.31-1.457-4.04-4.142-4.04a4.542 4.542 0 00-1.884.326c-.6.242-1.148.61-1.609 1.08a5.002 5.002 0 00-1.073 1.659 5.202 5.202 0 00-.364 1.968 3.211 3.211 0 00.648 2.069.505.505 0 01.174.262.528.528 0 01-.012.32 42.46 42.46 0 01-.208.822.382.382 0 01-.065.159.36.36 0 01-.126.11.34.34 0 01-.319-.002c-1.383-.582-2.035-2.18-2.035-4.007 0-2.989 2.383-6.567 7.152-6.567 3.796 0 6.32 2.916 6.32 6.034 0 4.104-2.177 7.19-5.394 7.19a2.748 2.748 0 01-1.386-.324 2.91 2.91 0 01-1.067-.984s-.578 2.432-.692 2.892a8.618 8.618 0 01-1.019 2.237 9.236 9.236 0 002.846.437 9.572 9.572 0 003.827-.797 9.967 9.967 0 003.245-2.277 10.537 10.537 0 002.165-3.409c.502-1.275.759-2.64.757-4.02-.001-2.536-.876-4.985-2.463-6.896C15.95 1.689 13.758.446 11.367.099l-.003-.001z" fill="#fff"/></symbol><symbol id="icon-search"><path d="M11.048 10.074L14 13.024l-.975.976-2.951-2.952A6.205 6.205 0 010 6.202 6.205 6.205 0 016.203 0a6.205 6.205 0 014.845 10.074zm-1.382-.512a4.808 4.808 0 001.36-3.36 4.823 4.823 0 00-4.823-4.824 4.822 4.822 0 00-4.825 4.825 4.823 4.823 0 004.825 4.824 4.808 4.808 0 003.36-1.361l.103-.104z"/></symbol><symbol id="icon-triangle-bottom"><path d="M1 1l7.5 8L16 1" stroke="#A87B62"/></symbol><symbol id="icon-twitter"><path d="M19.999 2.137a7.615 7.615 0 01-2.357.714c.858-.567 1.5-1.46 1.806-2.513a7.737 7.737 0 01-2.606 1.103C16.224.709 15.406.224 14.513.06a3.761 3.761 0 00-2.605.477c-.798.472-1.432 1.223-1.804 2.135a4.99 4.99 0 00-.254 2.91 10.782 10.782 0 01-4.685-1.378A11.96 11.96 0 011.392.837 4.904 4.904 0 00.837 3.12c0 1.575.724 2.966 1.825 3.78a3.793 3.793 0 01-1.858-.568v.057c0 1.049.328 2.065.928 2.877.6.812 1.435 1.369 2.363 1.577a3.744 3.744 0 01-1.854.078 4.56 4.56 0 001.46 2.258 3.85 3.85 0 002.373.897 7.967 7.967 0 01-2.868 1.61A7.471 7.471 0 010 15.958C1.876 17.293 4.06 18.002 6.29 18c7.547 0 11.675-6.922 11.675-12.924 0-.196-.005-.393-.013-.587A8.884 8.884 0 0020 2.138l-.001-.001z" fill="#fff"/></symbol></svg>
